X:15114
T:Scottish  Dodo Roffet
C:Les Brayauds
M:2/4
L:1/16
K:C
e2ga g3e|dcBA G4|f2Af e2Ge|dcBd g3e|e2ga g3e|dcBA G4|
f2Af e2Ge|dcBd c3e::edcd e3g|gfdB c3d|dcBA G3G|
GBcd e2ce|edcd e3g|gfdB c3d|dcBA G3G|GBcd c3e:|
